svgs/duotone/dove.svg

<svg xmlns="http://www.w3.org/2000/svg" viewBox="0 0 512 512"><!-- Font Awesome Pro 6.0.0-alpha2 by @fontawesome - https://fontawesome.com License - https://fontawesome.com/license (Commercial License) --><defs><style>.fa-secondary{opacity:.4}</style></defs><path d="M400.005 64.001C355.801 64.039 319.992 99.893 320.008 144.098V203.496C218.122 197.644 128.12 135.163 87.018 41.751C81.518 29.252 63.819 28.552 58.019 40.851C40.88 77.011 31.999 116.531 32.02 156.547C32.02 227.345 66.119 293.442 117.117 342.441C129.386 354.174 142.378 365.129 156.015 375.239L12.121 411.238C3.506 413.437 -1.695 422.204 0.504 430.819C0.941 432.531 1.656 434.158 2.622 435.637C20.021 462.536 63.019 508.135 155.895 511.984C163.995 512.236 171.89 509.414 177.994 504.085L243.191 447.987H320.008C408.293 448.064 479.924 376.558 480.001 288.273C480.001 288.266 480.001 288.259 480.001 288.253V127.998L512 64.001H400.005ZM400.036 160H399.965C391.129 159.98 383.981 152.801 384.001 143.965C384.02 135.128 391.2 127.981 400.036 128C408.873 128.02 416.02 135.199 416.001 144.035C415.981 152.844 408.845 159.981 400.036 160Z" class="fa-secondary"/><path d="M320.113 176.687V203.496C254.712 199.743 192.874 172.471 146 126.708C147.12 121.029 148.44 115.369 150 109.709C160.788 71.181 180.012 35.534 206.277 5.353C215.187 -4.937 232.036 0.513 233.966 14.002C242.86 76.608 273.328 134.146 320.113 176.687Z" class="fa-primary"/></svg>

<svg xmlns="http://www.w3.org/2000/svg" viewBox="0 0 512 512"><!-- Font Awesome Pro 5.15.1 by @fontawesome - https://fontawesome.com License - https://fontawesome.com/license (Commercial License) --><defs><style>.fa-secondary{opacity:.4}</style></defs><path d="M400 64a80.07 80.07 0 0 0-80 80.1v59.4A271.57 271.57 0 0 1 87 41.75c-5.5-12.5-23.2-13.2-29-.9a269.8 269.8 0 0 0-26 115.7c0 70.8 34.1 136.9 85.1 185.9a406.94 406.94 0 0 0 38.9 32.8l-143.9 36a16.1 16.1 0 0 0-9.5 24.4C20 462.55 63 508.15 155.88 512a32.09 32.09 0 0 0 22.1-7.9l65.2-56.1H320a159.86 159.86 0 0 0 160-159.74V128l32-64zm.05 96.1H400a11.31 11.31 0 1 1 .05 0z" class="fa-secondary"/><path d="M320 176.69v26.81a271.52 271.52 0 0 1-174.12-76.79c1.12-5.68 2.44-11.34 4-17A269.78 269.78 0 0 1 206.16 5.35C215.07-4.94 231.92.51 233.85 14A271.5 271.5 0 0 0 320 176.69z" class="fa-primary"/></svg>
